img/svg/box.svg

<svg width="64" height="64" viewBox="0 0 64 64" fill="none" xmlns="http://www.w3.org/2000/svg">
<g clip-path="url(#clip0)">
<path d="M61.4659 14.1164L32.4074 0.175614C32.1498 0.0521391 31.8498 0.0521391 31.5923 0.175614L2.53367 14.1164C2.20967 14.2718 2.0038 14.5978 2.0038 14.9554V48.8115C2.0038 49.169 2.20967 49.4951 2.53367 49.6505L31.5922 63.5912C31.7209 63.653 31.8604 63.6839 31.9998 63.6839C32.1392 63.6839 32.2785 63.653 32.4074 63.5912L61.4659 49.6505C61.7899 49.4951 61.9958 49.169 61.9958 48.8115V14.9555C61.9958 14.5977 61.7898 14.2719 61.4659 14.1164ZM31.9998 2.04923L58.9019 14.9554L51.1035 18.6966C51.0542 18.6592 51.002 18.6247 50.9448 18.5972L24.2254 5.77895L31.9998 2.04923ZM22.1082 6.83234L48.9712 19.7197L43.4693 22.3593L16.6174 9.47711L22.1082 6.83234ZM49.5997 21.4871V31.2441L44.4605 33.7096V23.9526L49.5997 21.4871ZM60.1208 48.2269L32.9373 61.2678V29.4808L39.4214 26.3701C39.8877 26.1464 40.0832 25.5895 39.858 25.126C39.6329 24.6628 39.0725 24.4683 38.6062 24.6921L31.9998 27.8616L29.4003 26.6144C28.9339 26.3905 28.3735 26.585 28.1484 27.0483C27.9233 27.5117 28.1188 28.0687 28.5851 28.2924L31.0623 29.4808V61.2678L3.8788 48.2267V16.4397L24.5788 26.3705C24.7102 26.4336 24.849 26.4634 24.9857 26.4634C25.3342 26.4634 25.6689 26.2693 25.8305 25.9366C26.0557 25.4732 25.8602 24.9162 25.3939 24.6925L5.09767 14.9554L14.4108 10.4874L42.5725 23.998C42.5767 24.0037 42.5813 24.0088 42.5855 24.0144V35.1941C42.5855 35.5147 42.7514 35.8127 43.0247 35.9833C43.1764 36.0779 43.3495 36.1257 43.5232 36.1257C43.6622 36.1257 43.8015 36.0951 43.9307 36.0331L50.9448 32.6681C51.2688 32.5127 51.4747 32.1867 51.4747 31.8291V20.5878L60.1208 16.4398V48.2269Z" fill="#68A7CF"/>
<path d="M11.6157 44.6134L7.35131 42.5676C6.88481 42.3436 6.32456 42.5382 6.09943 43.0015C5.87431 43.4648 6.06981 44.0218 6.53606 44.2456L10.8004 46.2913C10.9318 46.3544 11.0707 46.3843 11.2073 46.3843C11.5558 46.3843 11.8906 46.1902 12.0522 45.8574C12.2774 45.394 12.0819 44.8372 11.6157 44.6134Z" fill="#68A7CF"/>
<path d="M15.5405 42.0749L7.35741 38.149C6.89104 37.9253 6.33066 38.1196 6.10553 38.5831C5.88053 39.0464 6.07604 39.6034 6.54229 39.8271L14.7254 43.753C14.8568 43.816 14.9957 43.8459 15.1323 43.8459C15.4808 43.8459 15.8155 43.6519 15.9772 43.3191C16.2023 42.8555 16.0068 42.2985 15.5405 42.0749Z" fill="#68A7CF"/>
</g>
<defs>
<clipPath id="clip0">
<rect width="64" height="63.6008" fill="white" transform="translate(0 0.0830078)"/>
</clipPath>
</defs>
</svg>

<svg width="64" height="64" viewBox="0 0 64 64" fill="none" xmlns="http://www.w3.org/2000/svg"><g clip-path="url(#a)" fill="#68A7CF"><path d="M61.466 14.116L32.407.176a.943.943 0 0 0-.815 0L2.534 14.116a.931.931 0 0 0-.53.84v33.856c0 .357.206.683.53.839l29.058 13.94a.942.942 0 0 0 .815 0l29.059-13.94a.931.931 0 0 0 .53-.84V14.957a.931.931 0 0 0-.53-.84zM32 2.05l26.902 12.906-7.799 3.742a.931.931 0 0 0-.158-.1L24.225 5.78 32 2.049zm-9.892 4.783L48.971 19.72l-5.502 2.64L16.617 9.476l5.491-2.645zM49.6 21.487v9.757l-5.14 2.466v-9.757l5.14-2.466zm10.52 26.74l-27.183 13.04V29.482l6.484-3.11a.929.929 0 0 0 .437-1.245.94.94 0 0 0-1.252-.434L32 27.862l-2.6-1.248a.94.94 0 0 0-1.252.434.93.93 0 0 0 .437 1.244l2.477 1.189v31.787L3.88 48.227V16.44l20.7 9.93a.938.938 0 0 0 1.252-.433.929.929 0 0 0-.437-1.245L5.098 14.955l9.313-4.468 28.161 13.511.014.016v11.18a.93.93 0 0 0 .937.932c.14 0 .278-.03.408-.093l7.014-3.365a.931.931 0 0 0 .53-.839V20.588l8.646-4.148v31.787z"/><path d="M11.616 44.613L7.35 42.568a.94.94 0 0 0-1.252.434.93.93 0 0 0 .437 1.244L10.8 46.29a.938.938 0 0 0 1.252-.434.929.929 0 0 0-.436-1.244zm3.924-2.538l-8.183-3.926a.94.94 0 0 0-1.251.434.93.93 0 0 0 .436 1.244l8.183 3.926a.94.94 0 0 0 1.252-.434.93.93 0 0 0-.437-1.244z"/></g><defs><clipPath id="a"><path fill="#fff" transform="translate(0 .083)" d="M0 0h64v63.601H0z"/></clipPath></defs></svg>
